X:1
T:Tana Mana Dhana
T:Tana Mana Dhana
T:Indian melody, adapted by Marion Jean Chute
T:Public Domain Courtesy of the Cyber Hymnal™
C:Indian melody, adapted by Marion Jean Chute
Z:Public Domain
Z:Courtesy of the Cyber Hymnal™
%%score 1 2
L:1/8
Q:1/4=100
M:none
K:F
V:1 treble 
V:2 bass 
V:1
 FGAG FGFF | DDCC D4 | A2 AA A2 (AG) | Adcc AG F2 | FGFF DDCC D4 | AAcc c2 c2 ddddcd c2 | %6
 AAAA A2 AG | Ad c2 AG F2 | FGFF DDCC !fermata!D4 |] %9
V:2
 F,G,A,G, F,G,F,F, | D,D,C,C, D,4 | A,2 A,A, A,2 (A,G,) | A,DCC A,G, F,2 | F,G,F,F, D,D,C,C, D,4 | %5
 A,A,CC C2 C2 DDDDCD C2 | A,A,A,A, A,2 A,G, | A,D C2 A,G, F,2 | F,G,F,F, D,D,C,C, !fermata!D,4 |] %9

